X:1
T:Riverside, CMD
T:Riverside, CMD
T:Ernest Orlando Sellers. 1909
T:Public Domain Courtesy of the Cyber Hymnal™
C:Ernest Orlando Sellers. 1909
Z:Public Domain
Z:Courtesy of the Cyber Hymnal™
%%score ( 1 2 ) ( 3 4 )
L:1/8
Q:1/4=100
M:4/4
K:G
V:1 treble 
V:2 treble 
V:3 bass 
V:4 bass 
V:1
 [B,D]2 | [DB]3 [Dc] [Ge][Gd] [EG]>[_EA] | [DB]6 [DB]2 | [Fd]3 [FA] [^E^G]2 [FA]2 | [GB]6 [B,D]2 | %5
 [DB]3 [DB] [^DB][DF][DB][DA] | [EG]6 [EG]2 | [DG]3 [GB] [FB]2 [DA]2 | [DG]6 [B,D]2 | %9
 [CA]3 [B,^G] [CA][Ec] [DB]>[CA] | [B,G]6 G2 | G3 F E2 F2 | !fermata!F6 !fermata![DG]2 | %13
 [DB]3 [Dc] [Ge][Gd] [EG]>[_EA] | [DB]6 [DB]2 | [EA]3 [EB] [Ec]2 [DF]2 | [DG]6 |] %17
V:2
 x2 | x8 | x8 | x8 | x8 | x8 | x8 | x8 | x8 | x8 | x6 G2 | G3 F E2 F2 | (^D4 =D2) x2 | x8 | x8 | %15
 x8 | x6 |] %17
V:3
 G,2 | G,3 [G,A,] [G,B,][G,B,] [G,C]>[G,C] | G,6 G,2 | [D,A,]3 [D,D] [D,D]2 [D,D]2 | [G,D]6 G,2 | %5
 G,3 G, [B,,F,][B,,B,][B,,F,][B,,B,] | [E,B,]6 [^C,^A,]2 | [D,B,]3 [D,D] [D,D]2 [D,C]2 | %8
 [G,,B,]6 G,2 | [D,F,]3 [D,F,] [D,F,][D,F,] [D,F,]>[D,F,] | [G,,G,]6 G,2 | G,3 E, E,2 F,2 | %12
 ([B,,F,]4 [A,,C]2) [G,,B,]2 | G,3 [G,A,] [G,B,][G,B,] [G,C]>[G,C] | G,6 G,2 | %15
 [C,G,]3 [B,,^G,] [A,,A,]2 [D,C]2 | [G,,G,B,]6 |] %17
V:4
 G,2 | G,3 x5 | G,6 G,2 | x8 | x6 G,2 | G,3 G, x4 | x8 | x8 | x6 G,2 | x8 | x6 G,2 | %11
 G,3 E, E,2 F,2 | x8 | G,3 x5 | G,6 G,2 | x8 | x6 |] %17

